<?xml version="1.0" encoding="UTF-8"?>
<map version="1.11" tiledversion="1.12.2" orientation="orthogonal" renderorder="right-down" width="30" height="24" tilewidth="40" tileheight="40" infinite="0" nextlayerid="6" nextobjectid="25">
 <editorsettings>
  <export target="dischamb_chamber4.lua" format="lua"/>
 </editorsettings>
 <properties>
  <property name="music" value="zzz/pokedaa_mus_ruins_test"/>
  <property name="name" value="Dismal Chambers"/>
 </properties>
 <tileset firstgid="1" source="../tilesets/dismal_chambers.tsx"/>
 <layer id="1" name="tiles main" width="30" height="24">
  <data encoding="csv">
15,15,15,15,15,15,15,15,15,30,23,23,23,23,23,23,23,23,23,23,31,15,15,15,15,15,15,15,15,15,
15,15,15,15,15,15,15,15,15,16,3,4,3,3,3,3,3,3,4,3,14,15,15,15,15,15,15,15,15,15,
15,15,15,15,15,15,15,15,15,16,3,3,3,3,4,3,3,3,3,3,14,15,15,15,15,15,15,15,15,15,
15,15,15,15,15,15,15,15,15,16,11,11,11,11,11,11,11,11,11,11,14,15,15,15,15,15,15,15,15,15,
15,15,15,15,15,15,15,15,15,16,17,17,17,17,17,17,17,17,17,17,14,15,15,15,15,15,15,15,15,15,
15,15,15,15,15,15,15,15,15,16,17,17,17,25,9,9,26,17,17,17,14,15,15,15,15,15,15,15,15,15,
15,15,15,15,15,15,15,15,15,16,17,17,17,9,9,9,9,17,17,17,14,15,15,15,15,15,15,15,15,15,
15,15,15,15,15,15,15,15,15,16,17,17,17,33,9,9,34,17,17,17,14,15,15,15,15,15,15,15,15,15,
15,15,15,15,15,15,15,15,15,16,17,17,17,17,17,17,17,17,17,17,14,15,15,15,15,15,15,15,15,15,
15,15,15,15,15,15,15,15,15,38,7,7,8,17,17,17,17,6,7,7,39,15,15,15,15,15,15,15,15,15,
15,15,15,15,15,15,15,15,15,15,15,15,16,17,25,26,17,14,15,15,15,15,15,15,15,15,15,15,15,15,
15,15,15,15,15,15,15,15,15,15,15,15,16,17,9,9,17,14,15,15,15,15,15,15,15,15,15,15,15,15,
15,15,15,15,15,15,15,15,15,15,15,15,16,17,9,9,17,14,15,15,15,15,15,15,15,15,15,15,15,15,
15,15,15,15,15,15,15,15,15,15,15,15,16,17,9,9,17,14,15,15,15,15,15,15,15,15,15,15,15,15,
15,15,15,30,23,23,23,23,23,23,23,23,24,17,9,9,17,22,23,23,23,23,23,23,23,23,31,15,15,15,
15,15,15,16,3,3,3,21,3,3,3,3,5,17,9,9,17,2,3,3,3,3,3,3,3,3,14,15,15,15,
23,23,23,24,3,3,29,3,3,3,3,3,5,17,33,34,17,2,3,3,3,3,3,4,3,3,22,23,23,23,
3,3,3,5,11,11,11,11,11,11,11,11,13,17,17,17,17,10,11,11,11,11,11,11,11,11,2,3,3,3,
3,3,3,5,17,17,17,17,17,17,17,17,17,17,17,17,17,17,17,17,17,17,17,17,17,17,2,3,4,3,
11,11,12,13,17,17,17,17,25,26,17,17,17,25,9,9,26,17,17,17,25,26,17,17,17,17,10,11,11,11,
9,9,9,9,9,26,17,17,33,34,17,17,17,33,9,9,34,17,17,17,33,34,17,17,25,9,9,9,9,9,
9,9,9,9,9,34,17,17,17,17,17,17,17,17,17,17,17,17,17,17,17,17,17,17,33,9,9,9,9,9,
7,7,7,7,7,7,7,7,7,7,7,7,7,7,7,7,7,7,7,7,7,7,7,7,7,7,7,7,7,7,
15,15,15,15,15,15,15,15,15,15,15,15,15,15,15,15,15,15,15,15,15,15,15,15,15,15,15,15,15,15
</data>
 </layer>
 <layer id="2" name="tiles overlay" width="30" height="24">
  <data encoding="csv">
0,0,0,0,0,0,0,0,0,0,0,0,0,0,0,0,0,0,0,0,0,0,0,0,0,0,0,0,0,0,
0,0,0,0,0,0,0,0,0,0,0,93,96,0,0,0,0,93,94,95,0,0,0,0,0,0,0,0,0,0,
0,0,0,0,0,0,0,0,0,0,0,93,96,0,0,0,0,93,94,95,0,0,0,0,0,0,0,0,0,0,
0,0,0,0,0,0,0,0,0,0,0,93,96,0,0,0,0,93,94,95,0,0,0,0,0,0,0,0,0,0,
0,0,0,0,0,0,0,0,0,0,0,0,0,0,0,0,0,0,0,0,0,0,0,0,0,0,0,0,0,0,
0,0,0,0,0,0,0,0,0,0,0,0,0,0,0,0,0,0,0,0,0,0,0,0,0,0,0,0,0,0,
0,0,0,0,0,0,0,0,0,0,0,0,0,0,0,0,0,0,0,0,0,0,0,0,0,0,0,0,0,0,
0,0,0,0,0,0,0,0,0,0,0,0,0,0,0,0,0,0,0,0,0,0,0,0,0,0,0,0,0,0,
0,0,0,0,0,0,0,0,0,0,0,0,89,0,0,0,0,0,0,0,0,0,0,0,0,0,0,0,0,0,
0,0,0,0,0,0,0,0,0,0,0,0,0,0,0,0,0,0,0,0,0,0,0,0,0,0,0,0,0,0,
0,0,0,0,0,0,0,0,0,0,0,0,0,0,0,0,0,0,0,0,0,0,0,0,0,0,0,0,0,0,
0,0,0,0,0,0,0,0,0,0,0,0,0,0,0,0,0,0,0,0,0,0,0,0,0,0,0,0,0,0,
0,0,0,0,0,0,0,0,0,0,0,0,0,0,0,0,0,0,0,0,0,0,0,0,0,0,0,0,0,0,
0,0,0,0,0,0,0,0,0,0,0,0,0,0,0,0,0,0,0,0,0,0,0,0,0,0,0,0,0,0,
0,0,0,0,0,0,0,0,0,0,0,0,0,0,0,0,0,0,0,0,0,0,0,0,0,0,0,0,0,0,
0,0,0,0,0,93,94,96,0,0,0,0,0,0,0,0,0,0,0,0,0,0,87,0,0,0,0,0,0,0,
0,0,0,0,0,93,94,96,0,45,46,0,0,0,0,0,0,0,0,45,46,0,87,0,0,0,0,0,0,0,
0,0,0,0,0,93,94,96,0,0,0,0,0,0,0,0,0,0,0,0,0,0,87,0,0,0,0,93,96,0,
0,0,0,0,0,0,0,0,0,0,0,0,0,0,0,0,0,0,0,0,0,0,0,0,0,0,0,93,96,0,
0,0,0,0,0,0,0,0,0,0,0,0,0,0,0,0,0,0,0,0,0,0,0,0,0,0,0,93,96,0,
0,0,0,0,0,0,0,0,0,0,0,0,0,0,0,0,0,0,0,0,0,0,0,0,0,0,0,0,0,0,
0,0,0,0,0,0,0,0,0,0,0,0,0,0,0,0,0,0,0,0,0,0,0,0,0,0,0,0,0,0,
0,0,0,0,0,0,0,0,0,0,0,0,0,0,0,0,0,0,0,0,0,0,0,0,0,0,0,0,0,0,
0,0,0,0,0,0,0,0,0,0,0,0,0,0,0,0,0,0,0,0,0,0,0,0,0,0,0,0,0,0
</data>
 </layer>
 <objectgroup color="#ff0000" id="4" name="collisions">
  <object id="1" x="0" y="880" width="1200" height="40"/>
  <object id="2" x="1040" y="760" width="160" height="40"/>
  <object id="3" x="1040" y="720" width="40" height="40"/>
  <object id="4" x="680" y="680" width="360" height="40"/>
  <object id="6" x="720" y="360" width="80" height="40"/>
  <object id="7" x="800" y="160" width="40" height="200"/>
  <object id="8" x="400" y="120" width="400" height="40"/>
  <object id="9" x="360" y="160" width="40" height="200"/>
  <object id="10" x="400" y="360" width="120" height="40"/>
  <object id="12" x="160" y="680" width="320" height="40"/>
  <object id="13" x="120" y="720" width="40" height="40"/>
  <object id="14" x="0" y="760" width="160" height="40"/>
  <object id="22" x="480" y="400" width="40" height="320"/>
  <object id="23" x="680" y="360" width="40" height="320"/>
 </objectgroup>
 <objectgroup color="#ff00ff" id="3" name="objects">
  <object id="17" name="savepoint" x="600" y="240">
   <properties>
    <property name="marker" value="spawnfromsave"/>
    <property name="text1" value="* A familiar, yet unfamiliar location sprawls out before you."/>
    <property name="text2" value="* You are filled with the power of lazy palette swappery."/>
   </properties>
   <point/>
  </object>
  <object id="19" name="interactable" x="360" y="680" width="80" height="40">
   <properties>
    <property name="cutscene" value="signs.entrance_chamber_2_1"/>
   </properties>
  </object>
  <object id="20" name="interactable" x="760" y="680" width="80" height="40">
   <properties>
    <property name="cutscene" value="signs.entrance_chamber_2_2"/>
   </properties>
  </object>
  <object id="21" name="transition" x="-40" y="800" width="40" height="80">
   <properties>
    <property name="facing" value="left"/>
    <property name="map" value="dischamb_chamber3"/>
    <property name="marker" value="exit"/>
   </properties>
  </object>
  <object id="24" name="transition" x="1200" y="800" width="40" height="80">
   <properties>
    <property name="facing" value="right"/>
    <property name="map" value="dischamb_chamber5"/>
    <property name="marker" value="entrance"/>
   </properties>
  </object>
 </objectgroup>
 <objectgroup color="#00007f" id="5" name="markers">
  <object id="15" name="entrance" x="40" y="840">
   <point/>
  </object>
  <object id="16" name="exit" x="1160" y="840">
   <point/>
  </object>
  <object id="18" name="spawnfromsave" x="600" y="320">
   <point/>
  </object>
 </objectgroup>
</map>
