<?xml version="1.0" encoding="UTF-8"?>
<map version="1.11" tiledversion="1.12.2" orientation="orthogonal" renderorder="right-down" width="40" height="26" tilewidth="40" tileheight="40" infinite="0" nextlayerid="6" nextobjectid="29">
 <editorsettings>
  <export target="dischamb_chamber5.lua" format="lua"/>
 </editorsettings>
 <properties>
  <property name="music" value="zzz/pokedaa_mus_ruins_test"/>
 </properties>
 <tileset firstgid="1" source="../tilesets/dismal_chambers.tsx"/>
 <layer id="1" name="tiles main" width="40" height="26">
  <data encoding="csv">
15,15,15,15,15,16,9,9,14,15,15,15,15,15,15,15,15,15,15,15,15,15,15,15,15,15,15,15,15,15,15,15,15,15,15,15,15,15,15,15,
15,15,15,15,30,24,9,9,22,23,23,23,23,31,15,15,15,15,15,15,15,15,15,15,15,15,15,15,15,15,15,15,15,15,15,15,15,15,15,15,
15,15,15,15,16,5,9,9,2,3,3,21,3,14,15,15,15,15,15,15,15,15,15,15,15,15,15,15,15,15,15,15,15,15,15,15,15,15,15,15,
15,15,15,15,16,5,9,9,2,3,4,3,3,14,15,15,15,15,15,15,15,15,15,15,15,15,15,15,15,15,15,15,15,15,15,15,15,15,15,15,
15,15,15,15,16,13,9,9,10,11,11,11,11,22,23,23,23,23,23,23,23,23,23,23,23,23,23,23,23,23,23,23,23,23,23,23,23,23,31,15,
15,15,15,15,16,17,9,9,17,17,17,17,17,2,3,3,3,3,3,3,3,4,3,3,3,4,3,3,3,3,3,3,3,3,3,3,3,3,14,15,
15,15,15,15,16,17,9,9,116,17,17,17,17,2,3,3,21,3,3,3,3,3,3,3,21,3,3,3,3,3,3,3,3,3,3,3,3,3,14,15,
15,15,15,15,16,17,9,9,9,9,9,26,17,10,11,11,11,11,11,11,11,11,11,12,11,12,11,11,11,11,11,11,11,12,11,11,11,11,14,15,
15,15,15,15,16,17,9,9,9,9,9,9,17,17,17,17,17,17,17,17,17,17,17,17,17,17,17,17,17,17,17,17,17,17,17,17,17,17,14,15,
15,15,15,15,16,17,9,9,9,9,9,9,17,17,17,17,17,138,9,9,9,9,9,9,9,9,9,26,17,17,17,17,17,17,17,17,17,17,14,15,
15,15,15,15,16,17,33,9,9,9,9,34,17,17,17,17,17,17,33,9,9,9,9,9,9,9,9,9,139,17,17,17,17,17,17,17,17,17,14,15,
15,15,15,15,16,17,17,17,17,17,17,17,17,17,17,17,17,17,17,17,17,17,17,17,17,17,17,17,17,17,17,17,17,17,17,25,26,17,14,15,
15,15,15,15,38,7,7,7,7,7,7,7,7,7,7,7,7,7,7,7,7,7,7,7,7,7,7,7,7,7,7,7,7,8,17,9,9,17,14,15,
15,15,15,15,15,15,15,15,15,15,15,15,15,15,15,15,15,15,15,15,15,15,15,15,15,15,15,15,15,15,15,15,15,16,17,9,9,17,14,15,
15,15,15,15,15,15,15,15,15,15,15,15,15,15,15,15,15,15,15,15,15,15,15,15,15,15,15,15,15,15,15,15,15,16,17,9,9,17,14,15,
15,15,15,15,15,15,15,15,15,15,15,15,15,15,15,15,15,15,15,15,15,15,15,15,15,15,15,15,15,15,15,15,15,16,17,9,9,17,14,15,
15,15,15,30,23,23,23,23,23,23,23,23,23,23,23,23,23,23,23,23,23,23,23,23,23,23,23,23,23,23,23,23,23,24,17,9,9,17,14,15,
15,15,15,16,3,3,3,3,3,3,3,21,29,3,3,3,3,3,3,3,3,3,3,3,3,3,3,3,3,3,3,3,3,5,17,9,9,17,14,15,
23,23,23,24,3,3,4,3,3,3,3,3,3,3,3,3,3,3,3,3,3,3,3,3,3,3,3,4,3,3,3,3,21,5,17,9,9,17,14,15,
3,3,3,5,11,11,11,11,11,11,11,11,11,11,11,11,11,11,11,11,11,12,11,11,11,11,11,11,11,11,11,11,11,13,17,9,9,17,14,15,
4,3,3,5,17,17,17,17,17,17,17,17,17,17,17,17,17,17,17,17,17,17,17,17,17,17,17,17,17,17,17,17,17,17,17,33,34,17,14,15,
11,11,11,13,17,17,17,25,9,9,9,9,26,17,17,17,17,17,17,17,25,9,9,9,9,9,9,139,17,17,17,17,17,17,17,17,17,17,14,15,
9,9,17,17,9,9,9,9,9,9,9,9,34,17,17,17,17,17,17,138,9,9,9,9,9,9,34,17,17,17,17,17,17,17,17,17,17,17,14,15,
9,9,17,17,9,9,9,9,34,17,17,17,17,17,17,17,17,17,17,17,17,17,17,17,17,17,17,17,17,17,17,17,17,17,17,17,17,17,14,15,
7,7,7,7,7,7,7,7,7,7,7,7,7,7,7,7,7,7,7,7,7,7,7,7,7,7,7,7,7,7,7,7,7,7,7,7,7,7,39,15,
15,15,15,15,15,15,15,15,15,15,15,15,15,15,15,15,15,15,15,15,15,15,15,15,15,15,15,15,15,15,15,15,15,15,15,15,15,15,15,15
</data>
 </layer>
 <layer id="2" name="tiles overlay" width="40" height="26">
  <data encoding="csv">
0,0,0,0,0,0,0,0,0,0,0,0,0,0,0,0,0,0,0,0,0,0,0,0,0,0,0,0,0,0,0,0,0,0,0,0,0,0,0,0,
0,0,0,0,0,0,0,0,0,0,0,0,0,0,0,0,0,0,0,0,0,0,0,0,0,0,0,0,0,0,0,0,0,0,0,0,0,0,0,0,
0,0,0,0,0,96,0,0,0,0,0,0,0,0,0,0,0,0,0,0,0,0,0,0,0,0,0,0,0,0,0,0,0,0,0,0,0,0,0,0,
0,0,0,0,0,96,0,0,0,0,45,46,0,0,0,0,0,0,0,0,0,0,0,0,0,0,0,0,0,0,0,0,0,0,0,0,0,0,0,0,
0,0,0,0,0,96,0,0,0,0,0,0,0,0,0,0,0,0,0,0,0,0,0,0,0,0,0,0,0,0,0,0,0,0,0,0,0,0,0,0,
0,0,0,0,0,0,0,0,89,90,90,91,0,0,93,96,0,0,0,0,87,0,0,0,0,0,0,93,94,95,94,96,0,87,0,0,0,0,0,0,
0,0,0,0,0,0,0,0,97,98,98,99,0,0,93,96,0,0,0,0,87,0,0,0,0,0,0,93,94,95,94,96,0,87,0,0,0,0,0,0,
0,0,0,0,0,89,90,90,105,106,106,107,0,0,93,96,0,0,0,0,87,0,0,0,0,0,0,93,94,95,94,96,0,87,0,0,0,0,0,0,
0,0,0,0,0,97,98,98,99,0,0,0,89,90,90,91,0,0,0,0,0,0,0,0,0,0,0,0,0,0,0,0,0,0,0,0,0,0,0,0,
0,0,0,0,0,105,106,106,107,0,0,0,97,98,98,99,0,0,0,0,0,0,0,0,0,0,0,0,0,0,0,0,0,0,89,90,90,91,0,0,
0,0,0,0,0,0,0,0,0,0,0,0,105,106,106,107,0,0,0,0,0,0,0,0,0,0,0,0,0,0,0,0,0,0,97,98,98,99,0,0,
0,0,0,0,0,0,0,0,0,0,0,0,0,0,0,0,0,0,0,0,0,0,0,0,0,0,0,0,0,0,0,0,0,0,105,106,106,107,0,0,
0,0,0,0,0,0,0,0,0,0,0,0,0,0,0,0,0,0,0,0,0,0,0,0,0,0,0,0,0,0,0,0,0,0,0,0,0,0,0,0,
0,0,0,0,0,0,0,0,0,0,0,0,0,0,0,0,0,0,0,0,0,0,0,0,0,0,0,0,0,0,0,0,0,0,0,0,0,0,0,0,
0,0,0,0,0,0,0,0,0,0,0,0,0,0,0,0,0,0,0,0,0,0,0,0,0,0,0,0,0,0,0,0,0,0,0,0,0,0,0,0,
0,0,0,0,0,0,0,0,0,0,0,0,0,0,0,0,0,0,0,0,0,0,0,0,0,0,0,0,0,0,0,0,0,0,0,0,0,0,0,0,
0,0,0,0,0,0,0,0,0,0,0,0,0,0,0,0,0,0,0,0,0,0,0,0,0,0,0,0,0,0,0,0,0,0,0,0,0,0,0,0,
0,0,0,0,0,0,0,0,0,0,87,0,0,0,0,0,0,93,95,94,95,94,96,0,0,0,0,0,0,0,93,96,0,0,0,0,0,0,0,0,
0,0,0,0,0,0,0,0,0,0,87,0,0,0,0,0,0,93,95,94,95,94,96,0,0,0,45,46,0,0,93,96,0,0,0,0,0,0,0,0,
0,0,0,0,0,0,0,0,0,0,87,0,0,0,0,0,0,93,95,94,95,94,96,0,0,0,0,0,0,0,93,96,0,0,0,0,0,0,0,0,
0,0,0,0,0,0,0,0,0,0,0,0,0,0,0,0,0,0,0,89,90,90,91,0,0,0,0,0,0,0,0,0,0,0,0,0,0,0,0,0,
0,0,0,0,0,0,0,0,0,0,0,0,0,0,0,0,0,0,0,97,98,98,99,0,0,0,0,0,0,0,0,0,0,0,0,0,0,0,0,0,
0,0,9,9,0,0,0,0,0,0,0,0,0,0,0,0,0,0,0,105,106,106,107,0,0,0,0,0,0,0,0,0,0,0,0,0,0,0,0,0,
0,0,9,9,0,0,0,0,0,0,0,0,0,0,0,0,0,0,0,0,0,0,0,0,0,0,0,0,0,0,0,0,0,0,0,0,0,0,0,0,
0,0,0,0,0,0,0,0,0,0,0,0,0,0,0,0,0,0,0,0,0,0,0,0,0,0,0,0,0,0,0,0,0,0,0,0,0,0,0,0,
0,0,0,0,0,0,0,0,0,0,0,0,0,0,0,0,0,0,0,0,0,0,0,0,0,0,0,0,0,0,0,0,0,0,0,0,0,0,0,0
</data>
 </layer>
 <objectgroup color="#ff0000" id="4" name="collisions">
  <object id="4" x="0" y="840" width="160" height="40"/>
  <object id="5" x="120" y="800" width="40" height="40"/>
  <object id="6" x="160" y="760" width="1080" height="40"/>
  <object id="7" x="0" y="960" width="1200" height="40"/>
  <object id="8" x="1200" y="960" width="320" height="40"/>
  <object id="9" x="1520" y="320" width="40" height="640"/>
  <object id="10" x="600" y="280" width="920" height="40"/>
  <object id="11" x="1320" y="480" width="40" height="320"/>
  <object id="12" x="1240" y="760" width="80" height="40"/>
  <object id="13" x="600" y="480" width="720" height="40"/>
  <object id="14" x="200" y="480" width="400" height="40"/>
  <object id="15" x="160" y="80" width="40" height="400"/>
  <object id="17" x="200" y="160" width="40" height="40"/>
  <object id="18" x="320" y="160" width="200" height="40"/>
  <object id="19" x="520" y="200" width="40" height="120"/>
  <object id="20" x="560" y="280" width="40" height="40"/>
  <object id="27" x="200" y="0" width="40" height="160"/>
  <object id="28" x="320" y="0" width="40" height="160"/>
 </objectgroup>
 <objectgroup color="#ff00ff" id="3" name="objects">
  <object id="1" name="transition" x="-40" y="880" width="40" height="80">
   <properties>
    <property name="facing" value="left"/>
    <property name="map" value="dischamb_chamber4"/>
    <property name="marker" value="exit"/>
   </properties>
  </object>
  <object id="22" name="interactable" x="1040" y="760" width="80" height="40">
   <properties>
    <property name="cutscene" value="signs.entrance_chamber_3_1"/>
   </properties>
  </object>
  <object id="23" name="interactable" x="400" y="160" width="80" height="40">
   <properties>
    <property name="cutscene" value="signs.entrance_chamber_3_2"/>
   </properties>
  </object>
  <object id="26" name="transition" x="240" y="-40" width="80" height="40">
   <properties>
    <property name="facing" value="up"/>
    <property name="map" value="dischamb_chamber6"/>
    <property name="marker" value="entrance"/>
   </properties>
  </object>
 </objectgroup>
 <objectgroup color="#00007f" id="5" name="markers">
  <object id="2" name="entrance" x="40" y="920">
   <point/>
  </object>
  <object id="24" name="spawn" x="520" y="880">
   <point/>
  </object>
  <object id="25" name="exit" x="280" y="40">
   <point/>
  </object>
 </objectgroup>
</map>
