<?xml version="1.0" encoding="UTF-8"?>
<map version="1.11" tiledversion="1.12.2" orientation="orthogonal" renderorder="right-down" width="30" height="20" tilewidth="40" tileheight="40" infinite="0" nextlayerid="6" nextobjectid="24">
 <editorsettings>
  <export target="dischamb_chamber1.lua" format="lua"/>
 </editorsettings>
 <properties>
  <property name="music" value="zzz/pokedaa_mus_ruins_test"/>
 </properties>
 <tileset firstgid="1" source="../tilesets/dismal_chambers.tsx"/>
 <layer id="1" name="tiles main" width="30" height="20">
  <data encoding="csv">
15,30,23,23,23,23,23,23,23,23,23,23,23,23,23,23,23,23,23,23,23,23,23,23,23,23,23,23,31,15,
15,16,3,3,4,3,3,3,3,3,3,3,3,3,3,3,3,3,3,3,3,3,3,3,3,3,3,3,14,15,
15,16,3,3,3,3,3,3,3,3,3,3,3,3,3,3,3,3,3,3,3,3,3,3,4,3,3,3,14,15,
15,16,11,11,11,11,11,11,11,11,11,11,11,11,11,11,11,11,11,11,11,11,11,11,11,11,11,11,14,15,
23,24,17,17,17,17,17,17,17,17,17,17,17,17,17,17,17,17,17,17,17,17,17,17,17,17,17,17,14,15,
3,5,17,17,17,17,17,17,17,17,17,17,17,17,17,17,17,17,17,17,17,17,17,17,17,17,17,17,14,15,
3,5,17,17,17,17,17,17,17,17,17,17,17,17,17,17,17,17,17,17,17,17,17,17,17,17,17,17,14,15,
11,13,17,17,17,17,17,17,17,17,17,17,17,17,17,17,17,17,17,17,17,17,25,9,9,26,17,17,14,15,
9,9,9,9,9,9,9,9,26,17,17,17,17,17,17,25,9,9,9,9,9,9,9,9,9,9,17,17,14,15,
9,9,9,9,9,9,9,9,34,17,17,17,17,17,17,33,9,9,9,9,9,9,9,9,9,9,17,17,14,15,
7,8,17,17,17,17,17,17,17,17,17,17,17,17,17,17,17,17,17,17,17,17,33,9,9,34,17,17,14,15,
15,16,17,17,17,17,17,17,17,17,17,17,17,17,17,17,17,17,17,17,17,17,17,9,9,17,17,17,14,15,
15,16,17,17,17,17,17,17,17,17,17,17,17,17,17,17,17,17,17,17,17,17,17,9,9,17,17,17,14,15,
15,38,7,7,7,7,7,7,7,7,7,7,7,7,7,7,7,7,7,8,17,17,17,9,9,17,17,17,14,15,
15,15,15,15,15,15,15,15,15,15,15,15,15,15,15,15,15,15,15,16,17,17,17,9,9,17,17,17,14,15,
15,15,15,15,15,15,15,15,15,15,15,15,15,15,15,15,15,15,15,16,17,17,17,9,9,17,17,17,14,15,
15,15,15,15,15,15,15,15,15,15,15,15,15,15,15,15,15,15,15,16,17,17,17,9,9,17,17,17,14,15,
15,15,15,15,15,15,15,15,15,15,15,15,15,15,15,15,15,15,15,16,17,17,17,9,9,17,17,17,14,15,
15,15,15,15,15,15,15,15,15,15,15,15,15,15,15,15,15,15,15,38,7,7,8,9,9,6,7,7,39,15,
15,15,15,15,15,15,15,15,15,15,15,15,15,15,15,15,15,15,15,15,15,15,16,9,9,14,15,15,15,15
</data>
 </layer>
 <layer id="2" name="tiles overlay" width="30" height="20">
  <data encoding="csv">
0,0,0,0,0,0,0,0,0,0,0,0,0,0,0,0,0,0,0,0,0,0,0,0,0,0,0,0,0,0,
0,0,0,0,0,93,94,95,94,96,0,0,0,0,0,87,0,0,0,93,96,0,0,0,0,0,0,0,0,0,
0,0,0,0,0,93,94,95,94,96,0,0,45,46,0,87,0,0,0,93,96,0,0,0,0,0,0,0,0,0,
0,0,0,0,0,93,94,95,94,96,0,0,0,0,0,87,0,0,0,93,96,0,0,0,0,0,0,0,0,0,
0,0,0,0,0,0,0,0,89,90,90,91,0,0,0,0,0,0,0,0,0,0,0,0,0,0,0,0,0,0,
0,0,0,0,0,0,0,0,97,98,98,99,0,0,0,0,0,89,90,90,91,0,0,0,0,0,0,0,0,0,
0,0,0,0,0,0,0,0,105,106,106,107,0,0,0,0,0,97,98,98,99,0,0,0,0,0,0,0,0,0,
0,0,0,0,0,0,0,0,0,0,0,0,0,0,0,0,0,105,106,106,107,0,0,0,0,0,0,0,0,0,
0,0,0,0,0,0,0,0,0,0,0,0,0,0,0,0,0,0,0,0,0,0,0,0,0,0,0,0,0,0,
0,0,0,0,0,0,0,0,0,0,0,0,0,0,0,0,0,0,0,0,0,0,0,0,0,0,0,0,0,0,
0,0,0,0,0,0,0,0,0,0,0,89,90,90,91,0,0,0,0,0,0,0,0,0,0,0,0,0,0,0,
0,0,0,0,0,0,0,0,0,0,0,97,98,98,99,0,0,0,0,0,0,0,0,0,0,0,0,0,0,0,
0,0,0,0,0,0,0,0,0,0,0,105,106,106,107,0,0,0,0,0,0,0,0,0,0,0,0,0,0,0,
0,0,0,0,0,0,0,0,0,0,0,0,0,0,0,0,0,0,0,0,0,0,0,0,0,0,0,0,0,0,
0,0,0,0,0,0,0,0,0,0,0,0,0,0,0,0,0,0,0,0,0,0,0,0,0,0,0,0,0,0,
0,0,0,0,0,0,0,0,0,0,0,0,0,0,0,0,0,0,0,0,0,0,0,0,0,0,0,0,0,0,
0,0,0,0,0,0,0,0,0,0,0,0,0,0,0,0,0,0,0,0,0,0,0,0,0,0,0,0,0,0,
0,0,0,0,0,0,0,0,0,0,0,0,0,0,0,0,0,0,0,0,0,0,0,0,0,0,0,0,0,0,
0,0,0,0,0,0,0,0,0,0,0,0,0,0,0,0,0,0,0,0,0,0,0,0,0,0,0,0,0,0,
0,0,0,0,0,0,0,0,0,0,0,0,0,0,0,0,0,0,0,0,0,0,0,0,0,0,0,0,0,0
</data>
 </layer>
 <objectgroup color="#ff0000" id="3" name="collisions">
  <object id="4" x="0" y="400" width="80" height="40"/>
  <object id="5" x="40" y="440" width="40" height="80"/>
  <object id="6" x="80" y="520" width="720" height="40"/>
  <object id="7" x="760" y="560" width="40" height="160"/>
  <object id="8" x="800" y="720" width="120" height="40"/>
  <object id="9" x="880" y="760" width="40" height="40"/>
  <object id="10" x="1000" y="760" width="40" height="40"/>
  <object id="11" x="1000" y="720" width="120" height="40"/>
  <object id="15" x="1120" y="160" width="40" height="560"/>
  <object id="18" x="40" y="160" width="40" height="120"/>
  <object id="19" x="0" y="280" width="80" height="40"/>
  <object id="20" x="80" y="120" width="1040" height="40"/>
 </objectgroup>
 <objectgroup color="#ff55ff" id="5" name="objects">
  <object id="1" name="interactable" x="480" y="120" width="80" height="40">
   <properties>
    <property name="cutscene" value="signs.entrance_chamber_1_1"/>
   </properties>
  </object>
  <object id="3" name="transition" x="-40" y="320" width="40" height="80">
   <properties>
    <property name="facing" value="left"/>
    <property name="map" value="dischamb_startingroom"/>
    <property name="marker" value="exit"/>
   </properties>
  </object>
  <object id="21" name="transition" x="920" y="800" width="80" height="40">
   <properties>
    <property name="facing" value="down"/>
    <property name="map" value="dischamb_chamber2"/>
    <property name="marker" value="entrance"/>
   </properties>
  </object>
 </objectgroup>
 <objectgroup color="#00007f" id="4" name="markers">
  <object id="2" name="entrance" x="40" y="360">
   <point/>
  </object>
  <object id="23" name="exit" x="960" y="760">
   <point/>
  </object>
 </objectgroup>
</map>
