<?xml version="1.0" encoding="UTF-8"?>
<map version="1.11" tiledversion="1.12.2" orientation="orthogonal" renderorder="right-down" width="40" height="20" tilewidth="40" tileheight="40" infinite="0" nextlayerid="6" nextobjectid="25">
 <editorsettings>
  <export target="dischamb_chamber3.lua" format="lua"/>
 </editorsettings>
 <properties>
  <property name="music" value="zzz/pokedaa_mus_ruins_test"/>
 </properties>
 <tileset firstgid="1" source="../tilesets/dismal_chambers.tsx"/>
 <layer id="1" name="tiles main" width="40" height="20">
  <data encoding="csv">
15,15,15,15,16,9,9,14,15,15,15,15,15,15,15,15,15,15,15,15,15,15,15,15,15,15,15,15,15,15,15,15,15,15,15,15,15,15,15,15,
15,30,23,23,24,9,9,22,23,23,31,15,15,15,15,15,15,15,15,15,15,15,15,15,15,15,15,15,15,15,15,15,15,15,15,15,15,15,15,15,
15,16,4,3,5,9,9,2,4,3,14,15,15,15,15,15,15,15,15,15,15,15,15,15,15,15,15,15,15,15,15,15,15,15,15,15,15,15,15,15,
15,16,3,3,5,9,9,2,3,3,14,15,15,15,15,15,15,15,15,15,15,15,30,23,23,23,23,23,23,23,23,23,23,23,23,23,23,23,31,15,
15,16,11,12,13,9,9,10,11,11,14,15,15,15,15,15,15,15,15,15,15,15,16,3,3,3,3,3,3,3,29,3,3,3,3,3,3,3,14,15,
15,16,17,17,17,9,9,17,17,17,14,15,15,15,15,15,15,15,15,15,15,15,16,3,3,3,3,3,3,3,3,3,3,3,3,4,3,3,14,15,
15,16,17,17,17,9,9,17,17,17,14,15,15,15,15,15,15,15,15,15,15,15,16,11,11,12,11,11,11,11,11,11,11,12,11,11,11,11,22,23,
15,16,17,17,17,33,34,17,17,17,14,15,15,15,15,15,15,15,15,15,15,15,16,17,17,17,17,17,17,17,17,17,17,17,17,17,17,17,2,3,
15,16,17,17,17,17,17,17,17,17,14,15,15,15,15,15,15,15,15,15,15,15,16,17,17,17,17,17,17,17,17,17,17,17,17,17,17,17,2,4,
15,16,17,17,25,9,9,26,17,17,14,15,15,15,15,15,15,15,15,15,15,15,16,17,25,9,9,26,17,17,17,17,17,17,17,17,17,17,10,11,
15,16,17,17,33,9,9,34,17,17,22,23,23,23,23,23,23,23,23,23,23,23,24,17,9,9,9,9,17,17,25,26,17,17,25,9,9,9,9,9,
15,16,17,17,17,17,17,17,17,17,57,58,58,60,58,58,58,60,60,58,58,58,59,17,9,9,9,9,17,17,33,34,17,17,33,9,9,9,9,9,
15,16,17,17,25,9,26,17,17,17,57,58,60,58,58,58,60,58,58,58,58,60,59,17,33,9,9,34,17,17,17,17,17,17,17,17,17,17,6,7,
15,16,17,17,33,9,34,17,17,17,65,66,66,66,66,66,66,66,66,66,66,66,67,17,17,17,17,17,17,17,17,17,17,17,17,17,17,17,14,15,
15,16,17,17,17,17,17,17,17,17,17,17,17,17,17,17,17,17,17,17,17,17,17,17,17,17,17,17,17,17,17,17,17,17,17,17,17,17,14,15,
15,16,17,17,17,25,9,26,17,25,9,9,9,9,9,9,9,9,9,9,9,9,9,26,17,17,17,17,6,7,7,7,7,7,7,7,7,7,39,15,
15,16,17,17,17,33,9,34,17,33,9,9,9,9,9,9,9,9,9,9,9,9,9,34,17,17,17,17,14,15,15,15,15,15,15,15,15,15,15,15,
15,16,17,17,17,17,17,17,17,17,17,17,17,17,17,17,17,17,17,17,17,17,17,17,17,17,17,17,14,15,15,15,15,15,15,15,15,15,15,15,
15,38,7,7,7,7,7,7,7,7,7,7,7,7,7,7,7,7,7,7,7,7,7,7,7,7,7,7,39,15,15,15,15,15,15,15,15,15,15,15,
15,15,15,15,15,15,15,15,15,15,15,15,15,15,15,15,15,15,15,15,15,15,15,15,15,15,15,15,15,15,15,15,15,15,15,15,15,15,15,15
</data>
 </layer>
 <layer id="2" name="tiles overlay" width="40" height="20">
  <data encoding="csv">
0,0,0,0,0,0,0,0,0,0,0,0,0,0,0,0,0,0,0,0,0,0,0,0,0,0,0,0,0,0,0,0,0,0,0,0,0,0,0,0,
0,0,0,0,0,0,0,0,0,0,0,0,0,0,0,0,0,0,0,0,0,0,0,0,0,0,0,0,0,0,0,0,0,0,0,0,0,0,0,0,
0,0,0,0,0,0,0,93,94,95,0,0,0,0,0,0,0,0,0,0,0,0,0,0,0,0,0,0,0,0,0,0,0,0,0,0,0,0,0,0,
0,0,0,0,0,0,0,93,94,95,0,0,0,0,0,0,0,0,0,0,0,0,0,0,0,0,0,0,0,0,0,0,0,0,0,0,0,0,0,0,
0,0,0,0,0,0,0,93,94,95,0,0,0,0,0,0,0,0,0,0,0,0,0,94,96,0,0,0,0,0,0,93,94,95,96,0,0,0,0,0,
0,0,0,0,0,0,0,0,0,0,0,0,0,0,0,0,0,0,0,0,0,0,0,94,96,0,0,45,46,0,0,93,94,95,96,0,0,0,0,0,
0,0,0,0,0,0,89,90,90,91,0,0,0,0,0,0,0,0,0,0,0,0,0,94,96,0,0,0,0,0,0,93,94,95,96,0,0,0,0,0,
0,0,0,0,0,0,97,98,98,99,0,0,0,0,0,0,0,0,0,0,0,0,0,0,0,0,0,0,0,0,0,0,0,89,90,90,91,0,0,0,
0,0,0,0,0,0,105,106,106,107,0,0,0,0,0,0,0,0,0,0,0,0,0,0,0,0,89,90,90,91,0,0,0,97,98,98,99,0,0,0,
0,0,0,0,0,0,0,0,0,0,0,0,0,0,0,0,0,0,0,0,0,0,0,0,0,0,97,98,98,99,0,0,0,105,106,106,107,0,0,0,
0,0,0,0,0,0,0,0,0,0,0,0,0,0,0,0,0,0,0,0,0,0,0,0,0,0,105,106,106,107,0,0,0,0,0,0,0,0,0,0,
0,0,0,0,0,0,0,0,0,0,0,0,93,96,0,0,0,0,87,0,0,0,0,0,0,0,0,0,0,0,0,0,0,0,0,0,0,0,0,0,
0,0,0,0,0,0,0,0,0,0,0,0,93,96,0,0,0,0,87,0,0,0,0,0,0,0,0,0,0,0,0,89,90,90,91,0,0,0,0,0,
0,0,0,0,0,0,0,0,0,0,0,0,93,96,0,0,0,0,87,0,0,0,0,0,0,0,0,0,0,0,0,97,98,98,99,0,0,0,0,0,
0,0,0,89,90,90,91,0,0,0,0,0,0,0,0,0,0,0,0,0,0,0,0,0,0,0,0,0,0,0,0,105,106,106,107,0,0,0,0,0,
0,0,0,97,98,98,99,0,0,0,0,0,0,0,0,0,0,0,0,0,0,0,89,90,90,91,0,0,0,0,0,0,0,0,0,0,0,0,0,0,
0,0,0,105,106,106,107,0,0,0,0,0,0,0,0,0,0,0,0,0,0,0,97,98,98,99,0,0,0,0,0,0,0,0,0,0,0,0,0,0,
0,0,0,0,0,0,0,0,0,0,0,0,0,0,0,0,0,0,0,0,0,0,105,106,106,107,0,0,0,0,0,0,0,0,0,0,0,0,0,0,
0,0,0,0,0,0,0,0,0,0,0,0,0,0,0,0,0,0,0,0,0,0,0,0,0,0,0,0,0,0,0,0,0,0,0,0,0,0,0,0,
0,0,0,0,0,0,0,0,0,0,0,0,0,0,0,0,0,0,0,0,0,0,0,0,0,0,0,0,0,0,0,0,0,0,0,0,0,0,0,0
</data>
 </layer>
 <objectgroup color="#ff0000" id="4" name="collisions">
  <object id="4" x="40" y="200" width="40" height="520"/>
  <object id="5" x="80" y="160" width="120" height="40"/>
  <object id="6" x="160" y="0" width="40" height="160"/>
  <object id="7" x="280" y="0" width="40" height="160"/>
  <object id="8" x="280" y="160" width="120" height="40"/>
  <object id="9" x="400" y="200" width="40" height="360"/>
  <object id="10" x="440" y="520" width="440" height="40"/>
  <object id="11" x="880" y="160" width="40" height="400"/>
  <object id="12" x="80" y="720" width="1040" height="40"/>
  <object id="13" x="1120" y="600" width="40" height="120"/>
  <object id="14" x="1160" y="600" width="360" height="40"/>
  <object id="15" x="1520" y="480" width="40" height="120"/>
  <object id="16" x="1560" y="480" width="40" height="40"/>
  <object id="17" x="1520" y="360" width="80" height="40"/>
  <object id="18" x="1520" y="280" width="40" height="80"/>
  <object id="19" x="920" y="240" width="600" height="40"/>
 </objectgroup>
 <objectgroup color="#ff00ff" id="3" name="objects">
  <object id="20" name="interactable" x="1080" y="240" width="80" height="40">
   <properties>
    <property name="cutscene" value="signs.entrance_chamber_1_3"/>
   </properties>
  </object>
  <object id="23" name="transition" x="200" y="-40" width="80" height="40">
   <properties>
    <property name="facing" value="left"/>
    <property name="map" value="dischamb_chamber2"/>
    <property name="marker" value="exit"/>
   </properties>
  </object>
  <object id="24" name="spawn" x="1040" y="440">
   <point/>
  </object>
 </objectgroup>
 <objectgroup color="#00007f" id="5" name="markers">
  <object id="21" name="entrance" x="240" y="40">
   <point/>
  </object>
  <object id="22" name="exit" x="1560" y="440">
   <point/>
  </object>
 </objectgroup>
</map>
