<?xml version="1.0" encoding="UTF-8"?>
<map version="1.11" tiledversion="1.12.2" orientation="orthogonal" renderorder="right-down" width="40" height="24" tilewidth="40" tileheight="40" infinite="0" nextlayerid="6" nextobjectid="19">
 <editorsettings>
  <export target="dischamb_chamber6.lua" format="lua"/>
 </editorsettings>
 <properties>
  <property name="music" value="zzz/pokedaa_mus_ruins_test"/>
 </properties>
 <tileset firstgid="1" source="../tilesets/dismal_chambers.tsx"/>
 <layer id="1" name="tiles main" width="40" height="24">
  <data encoding="csv">
15,15,15,15,15,15,15,15,15,15,15,15,15,15,15,15,15,15,15,15,15,15,15,15,15,15,15,15,15,15,15,15,15,15,15,15,15,15,15,15,
15,30,23,23,23,23,23,23,23,23,23,23,23,23,23,23,23,23,23,23,23,23,23,23,23,23,23,23,23,23,23,23,23,23,23,23,23,23,31,15,
15,16,3,3,29,3,3,3,3,3,3,3,3,21,3,3,3,3,3,3,3,3,3,3,3,3,3,3,3,4,3,3,3,3,3,3,3,3,14,15,
15,16,3,3,3,3,3,3,3,4,3,3,3,3,3,3,3,3,3,3,3,3,3,3,3,3,3,3,21,3,3,3,3,3,3,3,3,3,22,23,
15,16,11,11,11,11,11,11,11,11,11,11,11,11,11,11,11,11,11,11,11,11,12,11,11,11,11,11,11,11,11,11,11,11,12,11,11,11,2,3,
15,16,17,17,17,17,17,17,17,17,17,17,17,17,17,17,17,17,17,17,17,17,17,17,17,17,17,17,17,17,17,17,17,17,17,17,17,17,2,3,
15,16,17,17,17,17,17,17,25,9,9,9,9,9,9,9,9,9,26,17,17,17,17,17,25,9,9,9,9,9,9,9,9,26,17,17,17,17,10,11,
15,16,17,17,17,25,26,17,33,9,9,9,9,9,9,9,9,9,34,17,17,17,25,9,9,9,9,9,9,9,9,9,9,9,9,26,17,17,17,17,
15,16,17,17,17,33,34,17,17,17,17,17,17,17,17,17,17,17,17,17,17,17,33,9,9,9,9,9,9,9,9,9,9,9,9,34,17,17,17,17,
15,16,17,17,17,17,17,17,6,7,7,7,7,7,7,7,7,7,8,17,17,17,17,17,33,9,9,9,9,9,9,9,9,34,17,17,17,17,6,7,
15,16,17,17,25,26,17,17,14,15,15,15,15,15,15,15,15,15,16,17,17,17,17,17,17,17,17,17,17,17,17,17,17,17,17,17,17,17,14,15,
15,16,17,117,9,9,116,17,14,15,15,15,15,15,15,15,15,15,38,7,7,7,7,7,7,7,7,7,7,7,7,7,7,7,7,7,7,7,39,15,
15,16,25,9,9,9,9,26,14,15,15,15,15,15,15,15,15,15,15,15,15,15,15,15,15,15,15,15,15,15,15,15,15,15,15,15,15,15,15,15,
15,16,9,9,9,9,9,9,14,15,15,15,15,15,15,15,15,15,15,15,15,15,15,15,15,15,15,15,15,15,15,15,15,15,15,15,15,15,15,15,
15,16,9,9,9,9,9,9,14,15,15,15,15,15,15,15,15,15,15,15,15,15,15,15,15,15,15,15,15,15,15,15,15,15,15,15,15,15,15,15,
15,16,33,9,9,9,9,34,22,23,23,23,23,23,23,23,23,23,23,23,23,23,23,23,23,23,23,23,31,15,15,15,15,15,15,15,15,15,15,15,
15,16,17,109,9,9,108,17,2,29,3,3,3,3,3,3,3,3,3,3,3,3,3,3,3,3,21,3,14,15,15,15,15,15,15,15,15,15,15,15,
15,16,17,17,33,34,17,17,2,3,3,29,3,3,3,3,3,3,4,3,3,3,3,3,3,3,3,3,14,15,15,15,15,15,15,15,15,15,15,15,
15,16,17,17,17,17,17,17,10,11,11,11,11,11,11,11,11,11,11,11,11,11,11,11,11,11,11,12,14,15,15,15,15,15,15,15,15,15,15,15,
15,16,17,17,17,25,26,17,17,17,17,17,17,25,9,9,9,9,26,17,17,17,17,17,25,9,9,9,14,15,15,15,15,15,15,15,15,15,15,15,
15,16,17,17,17,33,34,17,25,9,9,9,9,9,9,9,9,9,34,17,17,17,17,17,33,9,9,9,14,15,15,15,15,15,15,15,15,15,15,15,
15,16,17,17,17,17,17,17,33,9,9,9,9,34,17,17,17,17,17,17,17,17,17,17,17,109,9,9,14,15,15,15,15,15,15,15,15,15,15,15,
15,38,7,7,7,7,7,7,7,7,7,7,7,7,7,7,7,7,7,7,7,7,7,7,7,8,9,9,14,15,15,15,15,15,15,15,15,15,15,15,
15,15,15,15,15,15,15,15,15,15,15,15,15,15,15,15,15,15,15,15,15,15,15,15,15,16,9,9,14,15,15,15,15,15,15,15,15,15,15,15
</data>
 </layer>
 <layer id="2" name="tiles overlay" width="40" height="24">
  <data encoding="csv">
0,0,0,0,0,0,0,0,0,0,0,0,0,0,0,0,0,0,0,0,0,0,0,0,0,0,0,0,0,0,0,0,0,0,0,0,0,0,0,0,
0,0,0,0,0,0,0,0,0,0,0,0,0,0,0,0,0,0,0,0,0,0,0,0,0,0,0,0,0,0,0,0,0,0,0,0,0,0,0,0,
0,0,0,0,0,87,0,0,0,0,0,0,0,0,93,94,95,94,95,96,0,0,93,96,0,0,0,0,0,0,0,0,0,0,93,94,95,94,0,0,
0,0,0,0,0,87,0,0,0,0,0,0,0,0,93,94,95,94,95,96,0,0,93,96,0,0,0,0,0,0,45,46,0,0,93,94,95,94,0,0,
0,0,0,0,0,87,0,0,0,0,0,0,0,0,93,94,95,94,95,96,0,0,93,96,0,0,0,0,0,0,0,0,0,0,93,94,95,94,0,0,
0,0,0,0,0,0,0,0,0,0,0,0,0,0,0,0,0,0,0,0,0,0,0,0,0,0,0,0,89,90,90,91,0,0,0,0,0,0,0,0,
0,0,89,90,90,91,0,0,0,0,0,0,0,0,0,0,0,0,0,0,0,0,0,0,0,0,0,0,97,98,98,99,0,0,0,0,0,0,0,0,
0,0,97,98,98,99,0,0,0,0,0,0,0,0,0,0,0,0,0,0,0,0,0,0,0,0,0,0,105,106,106,107,89,90,90,91,0,0,0,0,
0,0,105,106,106,107,0,0,0,0,0,0,0,0,0,0,0,0,0,0,89,90,90,91,0,0,0,0,0,0,0,0,97,98,98,99,0,0,0,0,
0,0,0,0,0,0,0,0,0,0,0,0,0,0,0,0,0,0,0,0,97,98,98,99,0,0,0,0,0,0,0,0,105,106,106,107,0,0,0,0,
0,0,0,0,0,0,0,0,0,0,0,0,0,0,0,0,0,0,0,0,105,106,106,107,0,0,0,0,0,0,0,0,0,0,0,0,0,0,0,0,
0,0,0,0,0,0,0,0,0,0,0,0,0,0,0,0,0,0,0,0,0,0,0,0,0,0,0,0,0,0,0,0,0,0,0,0,0,0,0,0,
0,0,0,0,0,0,0,0,0,0,0,0,0,0,0,0,0,0,0,0,0,0,0,0,0,0,0,0,0,0,0,0,0,0,0,0,0,0,0,0,
0,0,0,0,0,0,0,0,0,0,0,0,0,0,0,0,0,0,0,0,0,0,0,0,0,0,0,0,0,0,0,0,0,0,0,0,0,0,0,0,
0,0,0,0,0,0,0,0,0,0,0,0,0,0,0,0,0,0,0,0,0,0,0,0,0,0,0,0,0,0,0,0,0,0,0,0,0,0,0,0,
0,0,0,0,0,0,0,0,0,0,0,0,0,0,0,0,0,0,0,0,0,0,0,0,0,0,0,0,0,0,0,0,0,0,0,0,0,0,0,0,
0,0,0,0,0,0,0,0,0,0,0,0,0,0,0,93,96,0,0,0,0,0,87,0,0,0,0,0,0,0,0,0,0,0,0,0,0,0,0,0,
0,0,0,0,0,0,0,0,0,0,45,46,0,0,0,93,96,0,0,0,0,0,87,0,0,0,0,0,0,0,0,0,0,0,0,0,0,0,0,0,
0,0,0,0,89,90,90,91,0,0,0,0,0,0,0,93,96,0,0,0,0,0,87,0,0,0,0,0,0,0,0,0,0,0,0,0,0,0,0,0,
0,0,0,0,97,98,98,99,0,0,0,0,0,0,0,0,0,0,0,0,0,0,0,0,0,0,0,0,0,0,0,0,0,0,0,0,0,0,0,0,
0,0,0,0,105,106,106,107,0,0,0,0,0,0,0,0,0,0,0,0,0,0,0,0,0,0,0,0,0,0,0,0,0,0,0,0,0,0,0,0,
0,0,0,0,0,0,0,0,0,0,0,0,0,0,0,0,0,0,0,0,0,0,0,0,0,0,0,0,0,0,0,0,0,0,0,0,0,0,0,0,
0,0,0,0,0,0,0,0,0,0,0,0,0,0,0,0,0,0,0,0,0,0,0,0,0,0,0,0,0,0,0,0,0,0,0,0,0,0,0,0,
0,0,0,0,0,0,0,0,0,0,0,0,0,0,0,0,0,0,0,0,0,0,0,0,0,0,0,0,0,0,0,0,0,0,0,0,0,0,0,0
</data>
 </layer>
 <objectgroup color="#ff0000" id="4" name="collisions">
  <object id="6" x="1120" y="760" width="40" height="200"/>
  <object id="7" x="1000" y="880" width="40" height="80"/>
  <object id="8" x="80" y="880" width="920" height="40"/>
  <object id="9" x="40" y="200" width="40" height="680"/>
  <object id="10" x="80" y="160" width="1160" height="40"/>
  <object id="11" x="320" y="360" width="440" height="400"/>
  <object id="12" x="760" y="720" width="360" height="40"/>
  <object id="13" x="760" y="440" width="760" height="40"/>
  <object id="14" x="1520" y="360" width="80" height="80"/>
  <object id="15" x="1520" y="200" width="80" height="80"/>
  <object id="16" x="1240" y="160" width="280" height="40"/>
 </objectgroup>
 <objectgroup color="#ff00ff" id="3" name="objects">
  <object id="1" name="transition" x="1040" y="960" width="80" height="40">
   <properties>
    <property name="facing" value="down"/>
    <property name="map" value="dischamb_chamber5"/>
    <property name="marker" value="exit"/>
   </properties>
  </object>
  <object id="5" name="transition" x="1600" y="280" width="40" height="80">
   <properties>
    <property name="facing" value="right"/>
    <property name="map" value="entrance_chamber_4"/>
    <property name="marker" value="entrance"/>
   </properties>
  </object>
  <object id="17" name="interactable" x="400" y="720" width="80" height="40">
   <properties>
    <property name="cutscene" value="signs.entrance_chamber_3_3"/>
   </properties>
  </object>
  <object id="18" name="interactable" x="1200" y="160" width="80" height="40">
   <properties>
    <property name="cutscene" value="signs.entrance_chamber_3_4"/>
   </properties>
  </object>
 </objectgroup>
 <objectgroup color="#00007f" id="5" name="markers">
  <object id="2" name="entrance" x="1080" y="920">
   <point/>
  </object>
  <object id="3" name="exit" x="1560" y="320">
   <point/>
  </object>
  <object id="4" name="spawn" x="1000" y="800">
   <point/>
  </object>
 </objectgroup>
</map>
